X:625
T: PETERSILJE DU SCHOENES KRAUT
N: E0573B
O: Europa, Mitteleuropa, Deutschland, Mark, Nauen, Vietzin
R: Liebes - Lied
M: 2/4
L: 1/16
K: G
 | d3cB2B2 | A2A2G2
G2 | A2A2B2d2 | dcB2A4
A3Bc2A2 | B2e2d2
d2 | c3BA2d2 | B2A2G4
A3Bc2A2 | B2e2d2
d2 | c3BA2d2 | B2A2G4

